X: 136008
Q: "Irish Jig."
M: 6/8
L: 1/8
K: G
d/c/ |\
|: ug |\
gdg gdg | gdg bag | fdf fdf | fdf agf |\
egg dgg | cgg Bgg | cBc Adc | BGG G2 :|


